assets/logos/icons/no-tie.svg

<svg xmlns="http://www.w3.org/2000/svg" width="24" height="24" viewBox="0 0 24 24">
  <path fill="#492F5C" fill-rule="evenodd" d="M20,15.6327681 L14.939,12.5967681 C14.979,12.4037681 15,12.2037681 15,11.9987681 C15,11.7937681 14.979,11.5947681 14.939,11.4017681 L20,8.36476808 L20,15.6327681 Z M4,15.6327681 L4,8.36476808 L9.061,11.4017681 C9.021,11.5947681 9,11.7937681 9,11.9987681 C9,12.2037681 9.021,12.4037681 9.061,12.5967681 L4,15.6327681 Z M21.228,6.19676808 C20.752,5.92776808 20.165,5.93476808 19.693,6.21676808 L13.898,9.69376808 C13.38,9.26676808 12.725,8.99876808 12,8.99876808 C11.275,8.99876808 10.62,9.26676808 10.102,9.69476808 L4.306,6.21676808 C3.838,5.93576808 3.25,5.92676808 2.772,6.19676808 C2.296,6.46776808 2,6.97576808 2,7.52376808 L2,16.4747681 C2,17.0227681 2.296,17.5297681 2.772,17.8007681 C3.005,17.9327681 3.264,17.9977681 3.522,17.9977681 C3.794,17.9977681 4.065,17.9257681 4.307,17.7807681 L10.102,14.3047681 C10.62,14.7317681 11.275,14.9987681 12,14.9987681 C12.725,14.9987681 13.38,14.7317681 13.898,14.3037681 L19.694,17.7807681 C19.935,17.9257681 20.205,17.9977681 20.478,17.9977681 C20.736,17.9977681 20.995,17.9327681 21.228,17.8007681 C21.704,17.5297681 22,17.0227681 22,16.4747681 L22,7.52376808 C22,6.97576808 21.704,6.46776808 21.228,6.19676808 L21.228,6.19676808 Z"/>
</svg>

<svg height="24" viewBox="0 0 24 24" width="24" xmlns="http://www.w3.org/2000/svg"><path d="m20 15.6327681-5.061-3.036c.04-.193.061-.393.061-.598s-.021-.404-.061-.597l5.061-3.03700002zm-16 0v-7.26800002l5.061 3.03700002c-.04.193-.061.392-.061.597s.021.405.061.598zm17.228-9.43600002c-.476-.269-1.063-.262-1.535.02l-5.795 3.477c-.518-.427-1.173-.695-1.898-.695s-1.38.268-1.898.696l-5.796-3.478c-.468-.281-1.056-.29-1.534-.02-.476.271-.772.779-.772 1.327v8.95100002c0 .548.296 1.055.772 1.326.233.132.492.197.75.197.272 0 .543-.072.785-.217l5.795-3.476c.518.427 1.173.694 1.898.694s1.38-.267 1.898-.695l5.796 3.477c.241.145.511.217.784.217.258 0 .517-.065.75-.197.476-.271.772-.778.772-1.326v-8.95100002c0-.548-.296-1.056-.772-1.327z" fill="#492f5c" fill-rule="evenodd"/></svg>
